brandFactory_export/2.Regular/Diamante_2Regular.svg

<?xml version="1.0" encoding="UTF-8"?>
<svg width="24px" height="24px" viewBox="0 0 24 24" version="1.1" xmlns="http://www.w3.org/2000/svg" xmlns:xlink="http://www.w3.org/1999/xlink">
    <title>2.Regular/Diamante_2Regular</title>
    <g id="Symbols" stroke="none" stroke-width="1" fill="none" fill-rule="evenodd">
        <g id="2.Regular/Diamante_2Regular" fill="#5CB615" fill-rule="nonzero">
            <path d="M17.794958,6.79327731 L19.1798319,2.51428571 L21.6336134,6.79327731 L17.794958,6.79327731 Z M17.3277311,8.23865546 L21.4756303,8.23865546 L13.9394958,18.6991597 L17.3277311,8.23865546 Z M6.29579832,8.23865546 L9.68403361,18.6991597 L2.1512605,8.23865546 L6.29579832,8.23865546 Z M7.08907563,5.94285714 L5.63361345,1.44537815 L10.4235294,1.44537815 L7.08907563,5.94285714 Z M13.2,1.44537815 L17.989916,1.44537815 L16.5344538,5.94285714 L13.2,1.44537815 Z M8.27226891,6.79327731 L11.8117647,2.02016807 L15.3512605,6.79327731 L8.27226891,6.79327731 Z M15.7915966,8.23865546 L11.8117647,20.5310924 L7.83193277,8.23865546 L15.7915966,8.23865546 L15.7915966,8.23865546 Z M4.44369748,2.51428571 L5.82857143,6.79327731 L1.98655462,6.79327731 L4.44369748,2.51428571 Z M23.6201681,7.52941176 C23.6201681,7.52605042 23.6235294,7.51932773 23.6235294,7.51596639 C23.6235294,7.50252101 23.6168067,7.49243697 23.6168067,7.4789916 C23.6134454,7.41176471 23.5966387,7.34117647 23.5764706,7.27731092 C23.5697479,7.25378151 23.5596639,7.2302521 23.5495798,7.21008403 C23.5428571,7.19327731 23.5394958,7.17647059 23.5294118,7.16302521 L19.6302521,0.369747899 C19.6235294,0.356302521 19.6067227,0.349579832 19.5966387,0.336134454 C19.5462185,0.255462185 19.4789916,0.191596639 19.3983193,0.137815126 C19.3647059,0.117647059 19.3344538,0.100840336 19.3042017,0.0840336134 C19.2739496,0.0672268908 19.2504202,0.0470588235 19.2168067,0.0369747899 C19.1630252,0.0201680672 19.112605,0.0235294118 19.0621849,0.0201680672 C19.0386555,0.0168067227 19.0184874,0.00336134454 18.994958,0.00336134454 L4.63193277,0.00336134454 C4.60840336,0.00336134454 4.58823529,0.0201680672 4.56806723,0.0201680672 C4.51428571,0.0235294118 4.46386555,0.0201680672 4.41008403,0.0369747899 C4.37647059,0.0470588235 4.35294118,0.0705882353 4.32268908,0.0840336134 C4.28907563,0.100840336 4.25882353,0.114285714 4.22857143,0.137815126 C4.14789916,0.191596639 4.08067227,0.258823529 4.0302521,0.336134454 C4.02016807,0.346218487 4.00336134,0.352941176 3.99663866,0.369747899 L0.0974789916,7.16302521 C0.087394958,7.17983193 0.087394958,7.19663866 0.0773109244,7.21008403 C0.0672268908,7.23361345 0.0605042017,7.25378151 0.0504201681,7.27731092 C0.0268907563,7.34117647 0.0134453782,7.41176471 0.0100840336,7.4789916 C0.0100840336,7.49243697 0.00336134454,7.50588235 0.00336134454,7.51932773 C0.00336134454,7.52268908 0.00672268908,7.52941176 0.00672268908,7.53277311 C0.0100840336,7.62016807 0.0268907563,7.70084034 0.0571428571,7.78151261 C0.0672268908,7.80168067 0.0773109244,7.81848739 0.0840336134,7.83529412 C0.100840336,7.86890756 0.114285714,7.90588235 0.137815126,7.9394958 L11.2168067,23.3243697 L11.2201681,23.3277311 C11.2806723,23.4084034 11.3613445,23.4722689 11.4487395,23.5226891 C11.4722689,23.5327731 11.492437,23.5462185 11.5159664,23.5563025 C11.6067227,23.5966387 11.707563,23.6268908 11.8117647,23.6268908 C11.9193277,23.6268908 12.0168067,23.5966387 12.1109244,23.5563025 C12.1344538,23.5462185 12.1546218,23.5361345 12.1747899,23.5226891 C12.2621849,23.4722689 12.3428571,23.4084034 12.4033613,23.3277311 L12.4067227,23.3243697 L23.4857143,7.9394958 C23.5092437,7.90588235 23.5226891,7.86890756 23.5394958,7.83529412 C23.5495798,7.81848739 23.5596639,7.80168067 23.5663866,7.78151261 C23.6,7.69747899 23.6201681,7.61680672 23.6201681,7.52941176 Z" id="Diamante_2Regular"></path>
        </g>
    </g>
</svg>

<svg width="24" height="24" viewBox="0 0 24 24" xmlns="http://www.w3.org/2000/svg"><path d="M17.795 6.793l1.385-4.279 2.454 4.28h-3.839zm-.467 1.446h4.148l-7.537 10.46 3.389-10.46zm-11.032 0l3.388 10.46L2.151 8.24h4.145zm.793-2.296L5.634 1.445h4.79L7.089 5.943zM13.2 1.445h4.79l-1.456 4.498L13.2 1.445zM8.272 6.793l3.54-4.773 3.54 4.773h-7.08zm7.52 1.446l-3.98 12.292L7.832 8.24h7.96zM4.444 2.514l1.385 4.28H1.987l2.457-4.28zM23.62 7.53l.004-.013c0-.013-.007-.024-.007-.037a.826.826 0 00-.067-.269c-.007-.017-.01-.034-.02-.047L19.63.37c-.006-.014-.023-.02-.033-.034a.656.656 0 00-.199-.198 3.129 3.129 0 00-.094-.054c-.03-.017-.054-.037-.087-.047-.054-.017-.104-.013-.155-.017-.023-.003-.044-.017-.067-.017H4.632c-.024 0-.044.017-.064.017-.054.004-.104 0-.158.017-.034.01-.057.034-.087.047-.034.017-.064.03-.094.054a.697.697 0 00-.199.198c-.01.01-.027.017-.033.034l-3.9 6.793c-.01.017-.01.034-.02.047-.01.024-.016.044-.027.067a.694.694 0 00-.04.202c0 .013-.007.027-.007.04 0 .004.004.01.004.014a.78.78 0 00.05.249c.01.02.02.036.027.053.017.034.03.07.054.104l11.079 15.385.003.004c.06.08.141.144.229.195.023.01.043.023.067.033.09.04.192.07.296.07a.752.752 0 00.363-.103.751.751 0 00.228-.195l.004-.004L23.486 7.94c.023-.033.037-.07.053-.104.01-.017.02-.033.027-.053a.666.666 0 00.054-.253z" fill="#5CB615" fill-rule="nonzero"/></svg>
